X:1
T:Partition sans titre
C:Compositeur / Arrangeur
L:1/8
M:4/4
I:linebreak $
K:D
V:1 treble nm="Violon" snm="Vln."
V:1
"D" fdcd"A" edAd |"D" fdcd"A" cdAd |"D" fdcd"A" efed |1 cABc"D" ddAd :|2 cABc"D" d2 AF |: %5
"D" DAAA"G" B2 AG |"D" FDFD"A" E2 AG |"D" FAAA"G" B2 AA |1"A" cABc"D" d2 AF :|2"A" cABc"D" ddAd |] %10
